packages/synapse-interface/assets/icons/movr.svg

<svg fill="none" height="48" viewBox="0 0 48 48" width="48" xmlns="http://www.w3.org/2000/svg" xmlns:xlink="http://www.w3.org/1999/xlink"><linearGradient id="a" gradientUnits="userSpaceOnUse" x1="0" x2="48" y1="0" y2="48"><stop offset="0" stop-color="#7946c5"/><stop offset="1" stop-color="#4a0da8"/></linearGradient><rect fill="url(#a)" height="48" rx="24" width="48"/><path d="m23.6584 5.76001c-1.7932 0-3.5689.35321-5.2256 1.03946-1.6567.68624-3.162 1.69209-4.43 2.96011s-2.2738 2.77332-2.96 4.43012c-.6862 1.6567-1.0394 3.4324-1.0393 5.2256.0003.8627.0813 1.7235.242 2.5711l1.764-1.2082c3.1012-2.1269 8.132-2.1269 11.2324 0l1.851 1.2677 1.0032.6895c2.7953 1.9152 7.3236 1.9152 10.1162 0l.8231-.5636c.4065-1.9846.3667-4.0347-.1166-6.002s-1.398-3.8026-2.6779-5.3728c-1.2799-1.57033-2.8929-2.83636-4.7223-3.70649s-3.8295-1.32259-5.8553-1.32461z" fill="#f2b705"/><g fill="#53cbc8"><path d="m31.3319 27.6176c-2.0573 0-4.0246-.5582-5.5058-1.5734l-2.8519-1.9545c-1.3653-.9386-3.1988-1.4554-5.1579-1.4554s-3.7932.513-5.1585 1.4554l-1.844 1.2625c-.0867.0603-.1846.1028-.2878.1251-.1033.0223-.2099.0239-.3138.0048-.1039-.019-.203-.0585-.29163-.116-.08859-.0576-.16493-.1321-.22461-.2192-.05969-.0872-.10154-.1853-.12316-.2887s-.02257-.21-.0028-.3138.05987-.2026.11799-.2908.13312-.1641.22067-.2232l1.84304-1.2625c1.6303-1.1186 3.7827-1.7334 6.0638-1.7334s4.4331.6148 6.0635 1.7334l2.8519 1.9545c1.3848.8475 2.9768 1.296 4.6004 1.296 1.6235 0 3.2155-.4485 4.6003-1.296l1.083-.741c.0867-.0613.1848-.1048.2884-.1279.1037-.023.2109-.0253.3154-.0065.1045.0187.2042.0581.2934.1157.0892.0577.166.1325.226.2201s.102.1863.1235.2903.0221.2112.0017.3154c-.0203.1043-.0611.2034-.1201.2917s-.135.164-.2235.2226l-1.083.741c-1.4879 1.0186-3.447 1.5738-5.5045 1.5738z"/><path d="m17.7566 33.3522v-7.7153c-.006-.1623.0009-.3248.0205-.486.024-.2123.1254-.4083.2848-.5506.1593-.1423.3655-.2208.5792-.2207.207.0056.4046.0875.5551.2298.1504.1423.2431.3351.2602.5415.0327.2678.0421.538.0281.8075v15.3825c-.0462.57-.4034.9464-.8845.9362-.481-.0103-.8284-.4011-.8305-.9797v-5.1271z"/><path d="m16.1342 29.4692v3.834c0 .656-.35 1.0904-.8459 1.0748s-.8717-.4575-.874-1.083v-7.6648c0-.6714.391-1.1244.9-1.0984.509.0261.8129.4321.8153 1.103.0071 1.2783.0046 2.5562.0046 3.8344z"/><path d="m21.1154 29.464v-2.6949c0-.6249.3316-1.0285.8254-1.0285s.874.4165.8797 1.0051c.0186 1.8345.0186 3.6681 0 5.5009 0 .6247-.3681.9999-.874.9952-.506-.0048-.8301-.3889-.836-1.0287v-2.7517z"/><path d="m11.0708 30.0245v-2.6955c0-.6245.3318-1.0283.8254-1.0283s.874.4165.8799 1.0051c.0168 1.8345.0168 3.6682 0 5.5009 0 .6247-.3707 1-.874.995-.5033-.0049-.8305-.3889-.836-1.0286v-2.751z"/><path d="m25.3017 27.7307h.0025c.2244.0001.4396.0893.5983.248.1586.1587.2478.374.2478.5984v1.4657c-.0001.2243-.0893.4395-.2479.5982-.1587.1586-.3738.2478-.5982.2478h-.0025c-.2244 0-.4397-.0891-.5984-.2478-.1587-.1586-.2479-.3738-.248-.5982v-1.4657c0-.2245.0892-.4397.2479-.5985.1588-.1587.374-.2479.5985-.2479z"/><path d="m28.6552 29.0141h.0025c.2244.0001.4396.0893.5983.2481.1586.1587.2477.3739.2477.5984v8.2207c0 .1111-.0218.2211-.0644.3237-.0425.1027-.1048.1959-.1834.2745-.0785.0785-.1718.1408-.2745.1833-.1026.0425-.2126.0644-.3237.0644h-.0025c-.1111 0-.2211-.0219-.3237-.0644-.1027-.0425-.1959-.1048-.2745-.1833-.0785-.0786-.1408-.1719-.1833-.2745s-.0644-.2126-.0644-.3237v-8.2207c0-.2245.0891-.4397.2477-.5984.1586-.1588.3738-.248.5982-.2481z"/><path d="m31.9851 29.3327h.0025c.2244 0 .4396.0891.5984.2478.1587.1586.2479.3738.248.5983v6.9868c0 .1112-.022.2212-.0645.3238-.0426.1026-.105.1959-.1836.2744s-.1719.1408-.2745.1833c-.1027.0424-.2127.0643-.3238.0642h-.0025c-.1111.0001-.2211-.0218-.3237-.0642-.1027-.0425-.1959-.1048-.2745-.1833-.0785-.0786-.1408-.1718-.1833-.2744-.0425-.1027-.0644-.2127-.0644-.3238v-6.9866c0-.1111.0218-.2212.0643-.3239.0425-.1026.1048-.1959.1833-.2745.0786-.0786.1719-.1409.2745-.1835.1027-.0425.2127-.0644.3238-.0644z"/><path d="m35.3616 28.5357h.0025c.2244 0 .4396.0891.5983.2478.1586.1587.2478.3739.2478.5983v3.0136c-.0001.2243-.0892.4395-.2479.5982-.1587.1586-.3738.2478-.5982.2478h-.0025c-.1111 0-.2211-.0219-.3237-.0644-.1027-.0425-.1959-.1048-.2745-.1834-.0785-.0786-.1408-.1718-.1833-.2745-.0425-.1026-.0644-.2126-.0644-.3237v-3.0134c0-.1112.0218-.2212.0643-.3239.0425-.1026.1048-.1959.1834-.2745.0785-.0786.1718-.1409.2744-.1835.1027-.0425.2127-.0644.3238-.0644z"/></g></svg>

<svg width="48" height="48" viewBox="0 0 48 48" fill="none" xmlns="http://www.w3.org/2000/svg">
<rect width="48" height="48" rx="24" fill="url(#paint0_linear_1275_22743)"/>
<path d="M23.6584 5.76001C21.8652 5.76001 20.0895 6.11322 18.4328 6.79947C16.7761 7.48571 15.2708 8.49156 14.0028 9.75958C12.7348 11.0276 11.729 12.5329 11.0428 14.1897C10.3566 15.8464 10.0034 17.6221 10.0035 19.4153C10.0038 20.278 10.0848 21.1388 10.2455 21.9864L12.0095 20.7782C15.1107 18.6513 20.1415 18.6513 23.2419 20.7782L25.0929 22.0459L26.0961 22.7354C28.8914 24.6506 33.4197 24.6506 36.2123 22.7354L37.0354 22.1718C37.4419 20.1872 37.4021 18.1371 36.9188 16.1698C36.4355 14.2025 35.5208 12.3672 34.2409 10.797C32.961 9.22667 31.348 7.96064 29.5186 7.09051C27.6892 6.22038 25.6891 5.76792 23.6633 5.7659L23.6584 5.76001Z" fill="#F2B705"/>
<path d="M31.3319 27.6176C29.2746 27.6176 27.3073 27.0594 25.8261 26.0442L22.9742 24.0897C21.6089 23.1511 19.7754 22.6343 17.8163 22.6343C15.8572 22.6343 14.0231 23.1473 12.6578 24.0897L10.8138 25.3522C10.7271 25.4125 10.6292 25.455 10.526 25.4773C10.4227 25.4996 10.3161 25.5012 10.2122 25.4821C10.1083 25.4631 10.0092 25.4236 9.92057 25.3661C9.83198 25.3085 9.75564 25.234 9.69596 25.1469C9.63627 25.0597 9.59442 24.9616 9.5728 24.8582C9.55118 24.7548 9.55023 24.6482 9.57 24.5444C9.58977 24.4406 9.62987 24.3418 9.68799 24.2536C9.74611 24.1654 9.82111 24.0895 9.90866 24.0304L11.7517 22.7679C13.382 21.6493 15.5344 21.0345 17.8155 21.0345C20.0966 21.0345 22.2486 21.6493 23.879 22.7679L26.7309 24.7224C28.1157 25.5699 29.7077 26.0184 31.3313 26.0184C32.9548 26.0184 34.5468 25.5699 35.9316 24.7224L37.0146 23.9814C37.1013 23.9201 37.1994 23.8766 37.303 23.8535C37.4067 23.8305 37.5139 23.8282 37.6184 23.847C37.7229 23.8657 37.8226 23.9051 37.9118 23.9627C38.001 24.0204 38.0778 24.0952 38.1378 24.1828C38.1978 24.2704 38.2398 24.3691 38.2613 24.4731C38.2828 24.5771 38.2834 24.6843 38.263 24.7885C38.2427 24.8928 38.2019 24.9919 38.1429 25.0802C38.0839 25.1685 38.0079 25.2442 37.9194 25.3028L36.8364 26.0438C35.3485 27.0624 33.3894 27.6176 31.3319 27.6176Z" fill="#53CBC8"/>
<path d="M17.7566 33.3522V25.6369C17.7506 25.4746 17.7575 25.3121 17.7771 25.1509C17.8011 24.9386 17.9025 24.7426 18.0619 24.6003C18.2212 24.458 18.4274 24.3795 18.6411 24.3796C18.8481 24.3852 19.0457 24.4671 19.1962 24.6094C19.3466 24.7517 19.4393 24.9445 19.4564 25.1509C19.4891 25.4187 19.4985 25.6889 19.4845 25.9584V41.3409C19.4383 41.9109 19.0811 42.2873 18.6 42.2771C18.119 42.2668 17.7716 41.876 17.7695 41.2974V36.1703L17.7566 33.3522Z" fill="#53CBC8"/>
<path d="M16.1342 29.4692V33.3032C16.1342 33.9592 15.7842 34.3936 15.2883 34.378C14.7924 34.3624 14.4166 33.9205 14.4143 33.295V25.6302C14.4143 24.9588 14.8053 24.5058 15.3143 24.5318C15.8233 24.5579 16.1272 24.9639 16.1296 25.6348C16.1367 26.9131 16.1342 28.191 16.1342 29.4692Z" fill="#53CBC8"/>
<path d="M21.1154 29.464V26.7691C21.1154 26.1442 21.447 25.7406 21.9408 25.7406C22.4346 25.7406 22.8148 26.1571 22.8205 26.7457C22.8391 28.5802 22.8391 30.4138 22.8205 32.2466C22.8205 32.8713 22.4524 33.2465 21.9465 33.2418C21.4405 33.237 21.1164 32.8529 21.1105 32.2131V29.4614L21.1154 29.464Z" fill="#53CBC8"/>
<path d="M11.0708 30.0245V27.329C11.0708 26.7045 11.4026 26.3007 11.8962 26.3007C12.3898 26.3007 12.7702 26.7172 12.7761 27.3058C12.7929 29.1403 12.7929 30.974 12.7761 32.8067C12.7761 33.4314 12.4054 33.8067 11.9021 33.8017C11.3988 33.7968 11.0716 33.4128 11.0661 32.7731V30.0221L11.0708 30.0245Z" fill="#53CBC8"/>
<path d="M25.3017 27.7307H25.3042C25.5286 27.7308 25.7438 27.82 25.9025 27.9787C26.0611 28.1374 26.1503 28.3527 26.1503 28.5771V30.0428C26.1502 30.2671 26.061 30.4823 25.9024 30.641C25.7437 30.7996 25.5286 30.8888 25.3042 30.8888H25.3017C25.0773 30.8888 24.862 30.7997 24.7033 30.641C24.5446 30.4824 24.4554 30.2672 24.4553 30.0428V28.5771C24.4553 28.3526 24.5445 28.1374 24.7032 27.9786C24.862 27.8199 25.0772 27.7307 25.3017 27.7307Z" fill="#53CBC8"/>
<path d="M28.6552 29.0141H28.6577C28.8821 29.0142 29.0973 29.1034 29.256 29.2622C29.4146 29.4209 29.5037 29.6361 29.5037 29.8606V38.0813C29.5037 38.1924 29.4819 38.3024 29.4393 38.405C29.3968 38.5077 29.3345 38.6009 29.2559 38.6795C29.1774 38.758 29.0841 38.8203 28.9814 38.8628C28.8788 38.9053 28.7688 38.9272 28.6577 38.9272H28.6552C28.5441 38.9272 28.4341 38.9053 28.3315 38.8628C28.2288 38.8203 28.1356 38.758 28.057 38.6795C27.9785 38.6009 27.9162 38.5076 27.8737 38.405C27.8312 38.3024 27.8093 38.1924 27.8093 38.0813V29.8606C27.8093 29.6361 27.8984 29.4209 28.057 29.2622C28.2156 29.1034 28.4308 29.0142 28.6552 29.0141Z" fill="#53CBC8"/>
<path d="M31.9851 29.3327H31.9876C32.212 29.3327 32.4272 29.4218 32.586 29.5805C32.7447 29.7391 32.8339 29.9543 32.834 30.1788V37.1656C32.834 37.2768 32.812 37.3868 32.7695 37.4894C32.7269 37.592 32.6645 37.6853 32.5859 37.7638C32.5073 37.8423 32.414 37.9046 32.3114 37.9471C32.2087 37.9895 32.0987 38.0114 31.9876 38.0113H31.9851C31.874 38.0114 31.764 37.9895 31.6614 37.9471C31.5587 37.9046 31.4655 37.8423 31.3869 37.7638C31.3084 37.6852 31.2461 37.592 31.2036 37.4894C31.1611 37.3867 31.1392 37.2767 31.1392 37.1656V30.179C31.1392 30.0679 31.161 29.9578 31.2035 29.8551C31.246 29.7525 31.3083 29.6592 31.3868 29.5806C31.4654 29.502 31.5587 29.4397 31.6613 29.3971C31.764 29.3546 31.874 29.3327 31.9851 29.3327Z" fill="#53CBC8"/>
<path d="M35.3616 28.5357H35.3641C35.5885 28.5357 35.8037 28.6248 35.9624 28.7835C36.121 28.9422 36.2102 29.1574 36.2102 29.3818V32.3954C36.2101 32.6197 36.121 32.8349 35.9623 32.9936C35.8036 33.1522 35.5885 33.2414 35.3641 33.2414H35.3616C35.2505 33.2414 35.1405 33.2195 35.0379 33.177C34.9352 33.1345 34.842 33.0722 34.7634 32.9936C34.6849 32.915 34.6226 32.8218 34.5801 32.7191C34.5376 32.6165 34.5157 32.5065 34.5157 32.3954V29.382C34.5157 29.2708 34.5375 29.1608 34.58 29.0581C34.6225 28.9555 34.6848 28.8622 34.7634 28.7836C34.8419 28.705 34.9352 28.6427 35.0378 28.6001C35.1405 28.5576 35.2505 28.5357 35.3616 28.5357Z" fill="#53CBC8"/>
<defs>
<linearGradient id="paint0_linear_1275_22743" x1="0" y1="0" x2="48" y2="48" gradientUnits="userSpaceOnUse">
<stop stop-color="#7946C5"/>
<stop offset="1" stop-color="#4A0DA8"/>
</linearGradient>
</defs>
</svg>
